T: South West, The
M: 12/8
L: 1/8
K: Gmaj
|: f | e2 d efg d2 B A2 B | G2 B ABA G2 A B2 d |e2 d efg d2 B A2 B | G2 A B2 d e2 f g2 :||: a |
